src/assets/edit.svg

<?xml version="1.0" encoding="UTF-8" standalone="no"?>
<svg
   xmlns:dc="http://purl.org/dc/elements/1.1/"
   xmlns:cc="http://creativecommons.org/ns#"
   xmlns:rdf="http://www.w3.org/1999/02/22-rdf-syntax-ns#"
   xmlns:svg="http://www.w3.org/2000/svg"
   xmlns="http://www.w3.org/2000/svg"
   version="1.1"
   id="svg919"
   width="90.708664"
   height="90.705376"
   viewBox="0 0 90.708664 90.705377">
  <metadata
     id="metadata925">
    <rdf:RDF>
      <cc:Work
         rdf:about="">
        <dc:format>image/svg+xml</dc:format>
        <dc:type
           rdf:resource="http://purl.org/dc/dcmitype/StillImage" />
        <dc:title></dc:title>
      </cc:Work>
    </rdf:RDF>
  </metadata>
  <defs
     id="defs923" />
  <path
     id="path832"
     d="M 0.25850196,90.387826 C 0.39641196,90.034916 2.3702719,84.864036 4.6448419,78.896986 6.9194219,72.929936 8.8259319,68.002296 8.8815519,67.946686 8.9371719,67.891066 12.194401,71.103026 16.119851,75.084366 21.481081,80.521936 23.187841,82.350936 22.978991,82.434756 22.716051,82.540286 4.1881719,89.475206 1.3419319,90.533436 L 0.007742,91.029486 Z M 28.225051,78.969776 C 28.035161,78.883876 24.315601,75.240826 19.959361,70.874116 L 12.038921,62.934636 12.119541,61.962536 C 12.279091,60.038576 14.533391,56.504166 18.036201,52.686086 18.934971,51.706426 28.198161,42.335606 38.621061,31.862036 L 57.571801,12.819186 67.890851,23.058016 78.209891,33.296836 58.137251,53.407986 C 45.238821,66.331166 37.416801,74.039286 36.252131,74.974436 32.266351,78.174726 29.505371,79.548956 28.225051,78.969776 Z M 72.024971,18.834826 61.793421,8.602196 65.724591,4.704516 C 70.233361,0.234146 70.361511,0.152266 72.849381,0.152266 75.251481,0.152266 75.100251,0.036926 82.896881,7.815236 90.796611,15.696406 90.716371,15.589806 90.716371,18.204096 90.716371,20.414986 90.412201,20.884246 86.082271,25.353406 84.103191,27.396136 82.432771,29.067446 82.370231,29.067446 82.307681,29.067446 77.652321,24.462766 72.024971,18.834826 Z"
     style="fill:#000000;stroke-width:0.17262794" />
</svg>

<svg xmlns="http://www.w3.org/2000/svg" width="90.709" height="90.705"><path d="M.259 90.388c.137-.353 2.111-5.524 4.386-11.491 2.274-5.967 4.18-10.895 4.237-10.95.055-.056 3.312 3.156 7.238 7.137 5.361 5.438 7.068 7.267 6.859 7.35-.263.106-18.79 7.041-21.637 8.1l-1.334.495zM28.225 78.97c-.19-.086-3.91-3.73-8.266-8.096l-7.92-7.94.08-.971c.16-1.924 2.414-5.459 5.917-9.277.899-.98 10.162-10.35 20.585-20.824l18.95-19.043 10.32 10.239L78.21 33.297 58.137 53.408C45.24 66.331 37.417 74.039 36.252 74.974c-3.986 3.2-6.747 4.575-8.027 3.996zm43.8-60.135L61.793 8.602l3.932-3.897C70.233.235 70.362.152 72.849.152c2.402 0 2.251-.115 10.048 7.663 7.9 7.881 7.82 7.775 7.82 10.39 0 2.21-.305 2.68-4.635 7.148-1.979 2.043-3.65 3.714-3.712 3.714-.062 0-4.718-4.604-10.345-10.232z" style="fill:#000;stroke-width:.17262794"/></svg>
